!!!COM:      Bach, Johann Sebastian
!!!CDT:      1685/03/31/-1750/07/28/
!!!OPR@@GER: Das wohltemperirte Clavier
!!!OVM@@GER: Band I
!!!OPR@ENG:  Well-Tempered Clavier
!!!OVM@ENG:  Book I
!!!OTL:      Fugue
!!!OKY:      G-sharp minor
!!!ONM:      no. 18
!!!SCT:      BWV 863
!!!OMV:      2
**kern	**kern	**kern	**kern
*	*	*	*M4/4
*clefF4	*clefF4	*clefG2	*
*k[f#c#g#d#a#]	*k[f#c#g#d#a#]	*k[f#c#g#d#a#]	*
*g#:	*g#:	*g#:	*
*M4/4	*M4/4	*M4/4	*
*met(c)	*met(c)	*met(c)	*
*MM72	*MM72	*MM72	*MM72
=1-	=1-	=1-	=1-
1r	4r	1r	1ryy
.	4G#	.	.
.	8F##	.	.
.	16G#	.	.
.	16A#	.	.
.	8B	.	.
.	8A#	.	.
=2	=2	=2	=2
1r	8G#	1r	1ryy
.	8c##	.	.
.	8d#	.	.
.	8F#	.	.
.	8G#	.	.
.	8G#	.	.
.	8A#	.	.
.	8A#	.	.
=3	=3	=3	=3
1r	8D#	4r	1ryy
.	8E#	.	.
.	[4F#	4d#	.
.	8F#]	8B#	.
.	16En	16c#	.
.	16F#	16d#	.
.	8G#	8e	.
.	16F##	8d#	.
.	16G#	.	.
=4	=4	=4	=4
1r	8A#	8c#	1ryy
.	16G#	8f##	.
.	16A#	.	.
.	8B	8g#	.
.	8G#	8B	.
.	8A#	8c#	.
.	8r	8c#	.
.	8F##	8d#	.
.	8r	8d#	.
=5	=5	=5	=5
*	*	*	*clefG2
*	*	*	*k[f#c#g#d#a#]
1r	8G#	4G#	4r
.	8F#X	.	.
.	4E	[4c#	4g#
.	8D#	8c#]	8f##
.	4G#	16B	16g#
.	.	16c#	16a#
.	.	8d#	8b
.	8A#	16c##	8a#
.	.	16d#	.
=6	=6	=6	=6
1r	4B	8e#	8g#
.	.	16d#	8cc##
.	.	16e#	.
.	4A#	8f#	8dd#
.	.	8d#	8f#
.	[2G#	8e#X	8g#
.	.	8r	8g#
.	.	8c##X	8a#
.	.	8r	8a#
=7	=7	=7	=7
4r	8G#]	4d#	8d#
.	16F#	.	8e#
.	16G#	.	.
4D#	8A#	8r	[4f#
.	8F#	8A#	.
8BB#	8D#	4G#	8f#]
16C#	8E	.	16en
16D#	.	.	16f#
8E	8r	8r	8g#
8D#	8Bn	8d#	16f##
.	.	.	16g#
=8	=8	=8	=8
*	*staff:12	*	*
*	*clefG2	*	*
8C#	4c#	8e	8a#
8F##	.	8d#	16g#
.	.	.	16a#
8G#	8r	8r	8b
8BB	8d#	8d#	8g#
8C#	8c#	8e	8a#
8C#	8ryy	8r	8r
8D#	8A#	8d#	8f##
8D#	8ryy	8r	8r
=9	=9	=9	=9
4GG#	4B	4d#	8g#
.	.	.	8a#
8r	8ryy	8r	4b
8D#	8B	8f#	.
8E	8e	8g#	8cc#
8E	8ryy	8r	8r
8F#	8c#	8f#	8a#
8F#	8ryy	8r	8r
=10	=10	=10	=10
4BB	4d#	4f#	8b
.	.	.	16dd#
.	.	.	16cc##
8r	8ryy	8r	4dd#
8F#	8d#	8a#	.
8G#	8g#	8b	8ee#
8G#	8ryy	8r	8r
8A#	8e#X	8a#	8cc##X
8A#	8ryy	8r	8r
=11	=11	=11	=11
*	*staff:9	*	*
*	*clefF4	*	*
8D#	8d#	8f#	8dd#
8r	8r	8g#	8ee#
4r	4d#	8a#	[4ff#
.	.	16b	.
.	.	16a#	.
2r	8B#	8g#	8ff#]
.	16c#	4cc#	16een
.	16d#	.	16ff#
.	8e	.	8gg#
.	8d#	8dd#	16ff##
.	.	.	16gg#
=12	=12	=12	=12
1r	8c#	4ee	8aa#
.	8f##	.	16gg#
.	.	.	16aa#
.	8g#	4dd#	8bb
.	8B	.	8gg#
.	8c#	[2cc#	8aa#
.	8c#	.	8r
.	8d#	.	8ff##
.	8d#	.	8r
=13	=13	=13	=13
1r	4G#	4cc#]	8gg#
.	.	.	16ff#X
.	.	.	16ee
.	8r	4b	8dd#
.	8G#	.	8ee
.	8An	[2an	8ff#
.	8A	.	8r
.	8B	.	8dd#
.	8B	.	8r
=14	=14	=14	=14
1r	4E	4an]	8ee
.	.	.	16dd#
.	.	.	16cc#
.	8r	4g#	8b#
.	8E	.	8cc#
.	8F#	[2f#	8dd#
.	8F#	.	8r
.	8G#	.	8b#
.	8G#	.	8r
=15	=15	=15	=15
4r	8C#	8f#]	4cc#
.	8D#	16e	.
.	.	16f#	.
4C#	8E	8g#	4r
.	8F#	16f#	.
.	.	16e	.
8BB#	4.G#	8d#	8r
16C#	.	16e	4cc#
16D#	.	16f#	.
8E	.	8g#	.
8D#	8Bn	16f##	8dd#
.	.	16g#	.
=16	=16	=16	=16
*	*staff:8	*	*
*	*clefG2	*	*
8C#	4c#	8a#	4ee
8F##	.	16g#	.
.	.	16a#	.
8G#	8B	8b	4dd#
8BB	8d#	8g#	.
8C#	8e	8a#	[2cc#
8C#	8r	8r	.
8D#	8d#	8f##	.
8D#	8r	8r	.
=17	=17	=17	=17
*	*staff:7	*	*
*	*clefF4	*	*
8GG#	8d#	8g#	8cc#]
8AA#	8r	8r	8ff##
8BB	4G#	4r	8gg#
8C#	.	.	8b
4D#	8F##	4r	8a#
.	16G#	.	8ff##X
.	16A#	.	.
8r	8B	8r	8gg#
8D#	8A#	8f##X	8cc#
=18	=18	=18	=18
4E#	8G#	4g#	8b
.	8c##	.	8gg#
2D#	8d#	8r	8ff#X
.	8F#	8f#X	8a#
.	8G#	4e#	8g#
.	8G#	.	8ff#
4C##X	8A#	8r	8ee#X
.	8A#	[8e#	8g#
=19	=19	=19	=19
4D#	8D#	8e#]	4f#
.	8E#	16d#	.
.	.	16c##	.
16r	[4F#	4d#	4r
16DD#	.	.	.
16EEn	.	.	.
16FF#	.	.	.
8GG#	8F#]	8B#	2r
4C#	16En	16c#X	.
.	16F#	16d#	.
.	8G#	8en	.
8D#	16F##	8d#	.
.	16G#	.	.
=20	=20	=20	=20
4E	8A#	8c#	1ryy
.	16G#	8f##	.
.	16A#	.	.
4D#	8B	8g#	.
.	8G#	8B	.
[2C#	8A#	8c#	.
.	8r	8c#	.
.	8F##	8d#	.
.	8r	8d#	.
=21	=21	=21	=21
8C#]	4G#	8G#	1ryy
16BB	.	8f##	.
16AA#	.	.	.
16BB	8r	[4g#	.
16GG#	.	.	.
8C##	8B	.	.
[2D#	8A#	8g#]	.
.	8G#	16f#X	.
.	.	16e#	.
.	8A#	16f#	.
.	.	16d#	.
.	8B#	8g##	.
=22	=22	=22	=22
8D#]	8E#	[2a#	1ryy
16C#X	8d#	.	.
16BB#	.	.	.
16C#	8e#X	.	.
16AA#	.	.	.
8D##	8f##	.	.
[2E#	8B#X	8a#]	.
.	8A#	16g##	.
.	.	16f##	.
.	8B#X	16g##X	.
.	.	16e#	.
.	8c#	8a#	.
=23	=23	=23	=23
8E#]	[2d#	[2b#	1ryy
16D#	.	.	.
16C#	.	.	.
16D#	.	.	.
16BB#	.	.	.
8E#	.	.	.
[4F#	8d#]	8b#]	.
.	16c#	16a#	.
.	16B#X	16g##	.
8.F#]	8c#	16a#	.
.	.	16b#X	.
.	[8A#	[8cc#	.
16E#X	.	.	.
=24	=24	=24	=24
*	*	*	*staff:4
4D#	16A#]	8cc#]	4r
.	16A#	.	.
.	16d#	16b#	.
.	16c#	16a#	.
4E#	16B#	16g##	4dd#
.	16A#	16a#	.
.	8B#	16f##	.
.	.	16g##	.
4AA#	8A#	[2a#	8cc##
.	16B#X	.	16dd#
.	16c##	.	16ee#
4r	8d#	.	8ff#
.	8e#X	.	8ee#
=25	=25	=25	=25
1r	[4f#	8a#]	8dd#
.	.	8b#	8gg##
.	16f#]	8cc#	8aa#
.	16g#	.	.
.	16f#	8a#	8cc#
.	16e#	.	.
.	16d#	[4bn	8dd#
.	16c#	.	.
.	16B	.	8dd#
.	16A#	.	.
.	4G#	16b]	8ee#
.	.	16A#	.
.	.	16B	8ee#
.	.	16c#	.
=26	=26	=26	=26
4r	8F#	4d#	8a#
.	8G#	.	8ee#
4F#	8A#	8c#	[4ff#
.	8c#	8a#	.
8D#	2d#	[4b	8ff#]
16En	.	.	8aa#
16F#	.	.	.
8G#	.	16b]	[4bb
.	.	16dd#	.
8F#	.	16een	.
.	.	16ff#	.
=27	=27	=27	=27
8E	4.c#	8gg#	8bb]
8A#	.	8r	8ee
8B	.	8r	4dd#
8D#	8B	8f#	.
8E	8B	8g#	[2cc#
8E	8r	16a#	.
.	.	16b	.
8F#	8A#	[4e	.
8F#	8r	.	.
=28	=28	=28	=28
8BB	4B	8e]	4cc#]
8AA#	.	16d#	.
.	.	16c#	.
8GG#	4r	16d#	[4b
.	.	16B	.
8C#	.	8e#	.
8FF#	2r	[2f#	8b]
8EE	.	.	16a#
.	.	.	16g#
8DD#	.	.	16a#
.	.	.	16f#
8GG#	.	.	8b#
=29	=29	=29	=29
8C#	1ryy	8f#]	[2cc#
8BB	.	16e	.
.	.	16d#	.
8AA#	.	16e	.
.	.	16c#	.
8D#	.	8f##	.
8GG#	.	[2g#	8cc#]
8FF#	.	.	16b
.	.	.	16a#
8EE#	.	.	16b
.	.	.	16g#
8AA#	.	.	8cc##
=30	=30	=30	=30
4DD#	1ryy	4g#]	8dd#
.	.	.	16cc#X
.	.	.	16b
8r	.	4f#	8a#
8D#	.	.	8b
8E	.	[2e	8cc#
8E	.	.	8r
8F#	.	.	8a#
8F#	.	.	8r
=31	=31	=31	=31
4BB	1ryy	4e]	8b
.	.	.	16a#
.	.	.	16g#
8r	.	4d#	8f##
8BB	.	.	8g#
8C#	.	[2c#	8a#
8C#	.	.	8r
8D#	.	.	8f##X
8D#	.	.	8r
=32	=32	=32	=32
*	*staff:5	*	*
8GG#	4r	8c#]	4g#
8AA#	.	16B	.
.	.	16c#	.
8BB	4G#	8d#	4r
8C#	.	16c#	.
.	.	16B	.
8D#	8F##	8A#	8r
[8F#X	16G#	16B#	4g#
.	16A#	16c#	.
16F#]	8B#	8d#	.
16G#	.	.	.
16F#	8A#	16c##	8a#
16E#	.	16d#	.
=33	=33	=33	=33
16D#	8G#	8e#	4b
16C##	.	.	.
16BB#	8c##X	16d#	.
16AA#	.	16e#	.
16GG#	8d#	8f#	4a#
16FF#	.	.	.
16GG#	8F#	8d#	.
16AA#	.	.	.
4BBn	8G#	8e#X	[2g#
.	8G#	8r	.
8AA#	8A#	8c##	.
8GG#	8A#	8r	.
=34	=34	=34	=34
8FF#	4D#	8d#	4g#]
8AA#	.	16c#X	.
.	.	16B	.
4DD#	8r	8A#	4f#
.	8D#	8B	.
2r	8E	8c#	[2e
.	8E	8r	.
.	8F#	8A#	.
.	8F#	8r	.
=35	=35	=35	=35
4r	16BB	4B	8e]
.	16D#	.	.
.	16E	.	8d#
.	16F#	.	.
8r	2G#	8r	2b
8GG#	.	8B	.
8AAn	.	8c#	.
8AA	.	8c#	.
8BB	4F#	8d#	[4an
8BB	.	8d#	.
=36	=36	=36	=36
4EE	4E	16e	4a]
.	.	16B	.
.	.	16c#	.
.	.	16d#	.
2E	8r	8e	8r
.	8B	8g#	8g#
.	8c#	[2f#	8a#X
.	8c#	.	8a#
4D#	8d#	.	8b#
.	8d#	.	8b#
=37	=37	=37	=37
8C#	[2G#	16f#]	4cc#
.	.	16d#	.
8D#	.	16e	.
.	.	16f#	.
8E	.	8g#	8r
8F#	.	16f#	8cc#
.	.	16e	.
[2G#	8G#]	8d#	8b#
.	16A#	4g#	16cc#
.	16B#	.	16dd#
.	8c#	.	8ee
.	8d#	16f##	8dd#
.	.	16g#	.
=38	=38	=38	=38
2.G#]	4e	8a#	8cc#
.	.	16g#	8ff##
.	.	16a#	.
.	4d#	8b	8gg#
.	.	8g#	8b
.	8e	8an	8cc#
.	8r	8r	8cc#
[4F#	8f#	8a	8dd#
.	8r	8r	8dd#
=39	=39	=39	=39
4F#]	8B#	8d#	8g#
.	8r	8r	8b#
8r	8ryy	8r	2cc#
8E	8e	8g#	.
8FF##	8d#	8a#X	.
8FF##	8ryy	8r	.
8GG#	4d#	8g#	[4bn
8GG#	.	8f#	.
=40	=40	=40	=40
8CC#	4c#	8e	4b]
8DD#	.	8d#	.
4EE	8r	[4c#	8a#
.	8C#	.	8g#
2DD#	2D#	8c#]	8f##
.	.	8B	4g#
.	.	4A#	.
.	.	.	8f##X
=41	=41	=41	=41
1GG#	1D#	1Bn;y	1g#;
==	==	==	==
*-	*-	*-	*-
!!!AFR:  fugue
!!!EFL:  36/96
!!!END:  1994/01/18/
!!!VID:  759765562 Bach, BWV 863-02
!!!AST:  Baroque
!!!OCY:  Deutschland
!!!ODT:  1722///
!!!PDT:  1801///
!!!EED:  Walter Hewlett
!!!ENC:  Walter Hewlett
!!!YOR:  Bach Gesellschaft Edition xiv
!!!AFT:  enhanced SCORE
!!!RDT:  2011/10/07/ by Andreas Kornstaedt using massScr2hmd
!!!SCA1: Thematisch-systematisches Verzeichnis der musikalischen Werke 
!!!SCA2: Johann Sebastian Bach: Bach-Werke-Verzeichnis (Schmieder)
!!!YEC1: Copyright 1994, 2000 Center for Computer Assisted Research 
!!!YEC2: in the Humanities
!!!YEM1: Rights to all derivative editions reserved.
!!!YEM2: Refer to licensing agreement for further details.
!!!YEN:  United States of America
!!!ref:  @{OTL}, @{SCT}
!!muse2ps: T^@{OTL} @{ONM} in @{OKY}^C^J.S. Bach\n@{SCT}-@{OMV}^
!!muse2ps: u^@{OPR@ENG}, @{OVM@ENG}^j
